packages/assets/static/images/icons/bold/truck--bold.svg

<svg width="24" height="24" viewBox="0 0 24 24" xmlns="http://www.w3.org/2000/svg">
<path d="M23.3569 9.70687L22.0444 6.42563C21.906 6.07758 21.666 5.77928 21.3556 5.56959C21.0452 5.3599 20.6789 5.24854 20.3044 5.25H17.8125V4.875C17.8125 4.57663 17.694 4.29048 17.483 4.0795C17.272 3.86853 16.9859 3.75 16.6875 3.75H2.4375C1.94022 3.75 1.46331 3.94754 1.11167 4.29917C0.760044 4.65081 0.5625 5.12772 0.5625 5.625V16.125C0.5625 16.6223 0.760044 17.0992 1.11167 17.4508C1.46331 17.8025 1.94022 18 2.4375 18H3.75563C3.98831 18.6579 4.41924 19.2276 4.98907 19.6305C5.55891 20.0334 6.23962 20.2497 6.9375 20.2497C7.63538 20.2497 8.31609 20.0334 8.88593 19.6305C9.45576 19.2276 9.88669 18.6579 10.1194 18H14.2556C14.4883 18.6579 14.9192 19.2276 15.4891 19.6305C16.0589 20.0334 16.7396 20.2497 17.4375 20.2497C18.1354 20.2497 18.8161 20.0334 19.3859 19.6305C19.9558 19.2276 20.3867 18.6579 20.6194 18H21.5625C22.0598 18 22.5367 17.8025 22.8883 17.4508C23.24 17.0992 23.4375 16.6223 23.4375 16.125V10.125C23.4253 9.98319 23.3983 9.84305 23.3569 9.70687ZM17.8125 7.5H20.0513L20.6512 9H17.8125V7.5ZM6.9375 18C6.715 18 6.49749 17.934 6.31248 17.8104C6.12748 17.6868 5.98328 17.5111 5.89814 17.3055C5.81299 17.1 5.79071 16.8738 5.83412 16.6555C5.87752 16.4373 5.98467 16.2368 6.142 16.0795C6.29934 15.9222 6.49979 15.815 6.71802 15.7716C6.93625 15.7282 7.16245 15.7505 7.36802 15.8356C7.57359 15.9208 7.74929 16.065 7.8729 16.25C7.99652 16.435 8.0625 16.6525 8.0625 16.875C8.0625 17.1734 7.94397 17.4595 7.733 17.6705C7.52202 17.8815 7.23587 18 6.9375 18ZM15.5625 14.07C14.9585 14.476 14.5005 15.0647 14.2556 15.75H10.1194C9.88669 15.0921 9.45576 14.5224 8.88593 14.1195C8.31609 13.7166 7.63538 13.5003 6.9375 13.5003C6.23962 13.5003 5.55891 13.7166 4.98907 14.1195C4.41924 14.5224 3.98831 15.0921 3.75563 15.75H2.8125V12H15.5625V14.07ZM15.5625 9.75H2.8125V6H15.5625V9.75ZM17.4375 18C17.215 18 16.9975 17.934 16.8125 17.8104C16.6275 17.6868 16.4833 17.5111 16.3981 17.3055C16.313 17.1 16.2907 16.8738 16.3341 16.6555C16.3775 16.4373 16.4847 16.2368 16.642 16.0795C16.7993 15.9222 16.9998 15.815 17.218 15.7716C17.4363 15.7282 17.6625 15.7505 17.868 15.8356C18.0736 15.9208 18.2493 16.065 18.3729 16.25C18.4965 16.435 18.5625 16.6525 18.5625 16.875C18.5625 17.1734 18.444 17.4595 18.233 17.6705C18.022 17.8815 17.7359 18 17.4375 18ZM21.1875 15.75H20.6194C20.4071 15.153 20.0315 14.6276 19.5352 14.2336C19.039 13.8396 18.4421 13.5929 17.8125 13.5216V11.25H21.1875V15.75Z"/>
</svg>

<svg viewBox="0 0 24 24" xmlns="http://www.w3.org/2000/svg" aria-hidden="true" fill="currentColor"><path d="m23.357 9.707-1.313-3.281a1.86 1.86 0 0 0-1.74-1.176h-2.491v-.375a1.125 1.125 0 0 0-1.125-1.125H2.438A1.875 1.875 0 0 0 .562 5.625v10.5A1.875 1.875 0 0 0 2.439 18h1.318a3.375 3.375 0 0 0 6.363 0h4.137a3.375 3.375 0 0 0 6.363 0h.944a1.875 1.875 0 0 0 1.875-1.875v-6a2 2 0 0 0-.081-.418M17.813 7.5h2.238l.6 1.5h-2.838zM6.938 18a1.125 1.125 0 1 1 0-2.25 1.125 1.125 0 0 1 0 2.25m8.625-3.93a3.4 3.4 0 0 0-1.307 1.68h-4.137a3.376 3.376 0 0 0-6.363 0h-.943V12h12.75zm0-4.32H2.813V6h12.75zM17.437 18a1.125 1.125 0 1 1 0-2.25 1.125 1.125 0 0 1 0 2.25m3.75-2.25h-.568a3.38 3.38 0 0 0-2.806-2.228V11.25h3.375z"/></svg>
